icons/svg/chevron-double-down.svg

﻿<?xml version="1.0" encoding="utf-8"?>
<!DOCTYPE svg PUBLIC "-//W3C//DTD SVG 1.1//EN" "http://www.w3.org/Graphics/SVG/1.1/DTD/svg11.dtd">
<svg xmlns="http://www.w3.org/2000/svg" xmlns:xlink="http://www.w3.org/1999/xlink" version="1.1" baseProfile="full" width="24" height="24" viewBox="0 0 24.00 24.00" enable-background="new 0 0 24.00 24.00" xml:space="preserve">
	<path fill="#000000" fill-opacity="1" stroke-width="0.2" stroke-linejoin="round" d="M 16.586,5.586L 18,7.00001L 12,13L 6,7.00001L 7.41403,5.586L 12,10.172L 16.586,5.586 Z M 16.586,11.586L 18,13L 12,19L 6,13L 7.41402,11.586L 12,16.172L 16.586,11.586 Z "/>
</svg>

<svg xmlns="http://www.w3.org/2000/svg" version="1.1" baseProfile="full" width="24" height="24" viewBox="0 0 24.00 24.00" xml:space="preserve"><path fill="#000" fill-opacity="1" stroke-width=".2" stroke-linejoin="round" d="M16.586 5.586L18 7l-6 6-6-6 1.414-1.414L12 10.172l4.586-4.586zm0 6L18 13l-6 6-6-6 1.414-1.414L12 16.172l4.586-4.586z"/></svg>
